Simply-Green-Circles/scalable/apps/gnome-do.svg

<?xml version="1.0" encoding="UTF-8" standalone="no"?>
<svg
   xmlns:dc="http://purl.org/dc/elements/1.1/"
   xmlns:cc="http://creativecommons.org/ns#"
   xmlns:rdf="http://www.w3.org/1999/02/22-rdf-syntax-ns#"
   xmlns:svg="http://www.w3.org/2000/svg"
   xmlns="http://www.w3.org/2000/svg"
   xmlns:sodipodi="http://sodipodi.sourceforge.net/DTD/sodipodi-0.dtd"
   xmlns:inkscape="http://www.inkscape.org/namespaces/inkscape"
   width="48"
   height="48"
   viewBox="0 0 12.7 12.7"
   version="1.1"
   id="svg4"
   sodipodi:docname="gnome-do.svg"
   inkscape:version="0.92.4 (5da689c313, 2019-01-14)">
  <metadata
     id="metadata10">
    <rdf:RDF>
      <cc:Work
         rdf:about="">
        <dc:format>image/svg+xml</dc:format>
        <dc:type
           rdf:resource="http://purl.org/dc/dcmitype/StillImage" />
        <dc:title></dc:title>
      </cc:Work>
    </rdf:RDF>
  </metadata>
  <defs
     id="defs8" />
  <sodipodi:namedview
     pagecolor="#ffffff"
     bordercolor="#666666"
     borderopacity="1"
     objecttolerance="10"
     gridtolerance="10"
     guidetolerance="10"
     inkscape:pageopacity="0"
     inkscape:pageshadow="2"
     inkscape:window-width="1087"
     inkscape:window-height="480"
     id="namedview6"
     showgrid="false"
     inkscape:zoom="4.9166667"
     inkscape:cx="2.1355932"
     inkscape:cy="24"
     inkscape:window-x="0"
     inkscape:window-y="25"
     inkscape:window-maximized="0"
     inkscape:current-layer="svg4" />
  <path
     d="m 6.344,0.073 a 6.29,6.29 0 0 0 -6.29,6.29 6.29,6.29 0 0 0 6.29,6.288 6.29,6.29 0 0 0 6.29,-6.289 6.29,6.29 0 0 0 -6.29,-6.29 z M 6.326,1.009 A 5.407,5.407 0 0 1 11.733,6.416 5.407,5.407 0 0 1 6.326,11.823 5.407,5.407 0 0 1 0.92,6.416 5.407,5.407 0 0 1 6.326,1.01 Z m 0.023,1.637 c -0.116,0 -0.232,0.003 -0.346,0.015 L 5.788,3.77 A 2.652,2.652 0 0 0 5.275,3.935 L 4.465,3.158 a 3.678,3.678 0 0 0 -0.563,0.43 l 0.48,1.01 A 2.676,2.676 0 0 0 4.068,5.028 L 2.96,4.878 A 3.657,3.657 0 0 0 2.745,5.556 L 3.72,6.086 A 2.554,2.554 0 0 0 3.704,6.35 c 0,0.091 0.007,0.176 0.016,0.265 L 2.745,7.144 c 0.051,0.235 0.12,0.461 0.215,0.678 l 1.108,-0.15 c 0.09,0.154 0.196,0.299 0.314,0.43 l -0.48,1.01 C 4.08,9.27 4.259,9.42 4.465,9.542 L 5.275,8.764 C 5.437,8.837 5.61,8.891 5.788,8.93 l 0.215,1.108 a 3.767,3.767 0 0 0 0.694,0 L 6.912,8.93 C 7.089,8.89 7.262,8.836 7.424,8.764 L 8.235,9.542 C 8.44,9.42 8.62,9.27 8.797,9.112 L 8.317,8.102 C 8.435,7.972 8.542,7.826 8.632,7.672 L 9.74,7.822 A 3.657,3.657 0 0 0 9.955,7.144 L 8.979,6.614 C 8.989,6.526 8.996,6.441 8.996,6.35 8.996,6.259 8.988,6.174 8.979,6.085 L 9.955,5.556 A 3.656,3.656 0 0 0 9.74,4.878 L 8.632,5.028 A 2.676,2.676 0 0 0 8.318,4.597 L 8.798,3.588 A 3.677,3.677 0 0 0 8.235,3.158 L 7.424,3.936 A 2.654,2.654 0 0 0 6.912,3.77 L 6.696,2.662 A 3.767,3.767 0 0 0 6.349,2.647 Z m 0,2.116 a 1.588,1.588 0 1 1 0,3.176 1.588,1.588 0 0 1 0,-3.176 z"
     id="path2"
     inkscape:connector-curvature="0"
     style="fill:#2ca02c" />
</svg>

<svg xmlns="http://www.w3.org/2000/svg" width="48" height="48" viewBox="0 0 12.7 12.7"><path fill="#2ca02c" d="M6.34.07a6.29 6.29 0 0 0-6.29 6.3 6.29 6.29 0 0 0 6.3 6.28 6.29 6.29 0 0 0 6.28-6.29A6.29 6.29 0 0 0 6.34.07zm-.01.94a5.4 5.4 0 0 1 5.4 5.4 5.4 5.4 0 0 1-5.4 5.41 5.4 5.4 0 0 1-5.41-5.4A5.4 5.4 0 0 1 6.32 1zm.02 1.64L6 2.66 5.8 3.77a2.65 2.65 0 0 0-.51.17l-.81-.78a3.68 3.68 0 0 0-.57.43l.48 1a2.68 2.68 0 0 0-.31.44l-1.11-.15a3.66 3.66 0 0 0-.22.68l.98.53a2.55 2.55 0 0 0-.02.26l.02.27-.98.52c.06.24.12.46.22.68l1.1-.15c.1.16.2.3.32.43L3.9 9.11c.18.16.36.31.56.43l.81-.78c.17.08.34.13.52.17l.21 1.1a3.77 3.77 0 0 0 .7 0l.21-1.1c.18-.04.35-.1.51-.17l.81.78c.21-.12.39-.27.57-.43l-.48-1c.11-.14.22-.28.31-.44l1.11.15a3.66 3.66 0 0 0 .21-.68l-.97-.53a2.3 2.3 0 0 0 0-.53l.97-.52a3.66 3.66 0 0 0-.21-.68l-1.1.15a2.68 2.68 0 0 0-.32-.43l.48-1.01a3.68 3.68 0 0 0-.57-.43l-.8.78a2.65 2.65 0 0 0-.52-.17l-.21-1.1a3.77 3.77 0 0 0-.35-.02zm0 2.11a1.59 1.59 0 1 1 0 3.18 1.59 1.59 0 0 1 0-3.18z"/></svg>
